packages/assets/static/images/icons/fax-icon.svg

<svg width="24" height="24" viewBox="0 0 24 24" xmlns="http://www.w3.org/2000/svg" fill="currentColor" aria-hidden="true"> <path d="M20.4343 7.49707V5.09707C20.4343 5.05957 20.4325 5.02207 20.4287 4.98457C20.4259 4.95738 20.4212 4.9302 20.4165 4.90301C20.4147 4.89363 20.4137 4.88426 20.4118 4.87488C20.4053 4.84207 20.3968 4.81019 20.3875 4.77926C20.3865 4.77551 20.3856 4.7727 20.3847 4.76895C20.3753 4.73707 20.3631 4.7052 20.3509 4.67426C20.35 4.67145 20.349 4.66863 20.3481 4.66582C20.3359 4.63676 20.3218 4.6077 20.3078 4.58051C20.305 4.57582 20.3031 4.57113 20.3012 4.56645C20.2872 4.54113 20.2722 4.51676 20.2572 4.49238C20.2525 4.48582 20.2487 4.47832 20.245 4.47176C20.23 4.44926 20.2131 4.4277 20.1972 4.40707C20.1915 4.39957 20.1859 4.39113 20.1793 4.38363C20.1587 4.35832 20.1362 4.33395 20.1128 4.31051C20.11 4.3077 20.1081 4.30488 20.1053 4.30207L16.4593 0.656133C16.4593 0.656133 16.4537 0.651445 16.4509 0.648633C16.4275 0.625195 16.4031 0.602695 16.3778 0.58207C16.3703 0.575508 16.3618 0.569883 16.3534 0.564258C16.3328 0.54832 16.3112 0.531445 16.2887 0.516445C16.2822 0.511758 16.2747 0.508008 16.2672 0.50332C16.2428 0.48832 16.2184 0.47332 16.194 0.459258C16.1893 0.456445 16.1837 0.45457 16.179 0.451758C16.1509 0.437695 16.1228 0.423633 16.0937 0.411445C16.09 0.410508 16.0872 0.408633 16.0834 0.407695C16.0525 0.395508 16.0215 0.384258 15.9906 0.373945C15.9868 0.373008 15.9831 0.37207 15.9793 0.371133C15.9484 0.361758 15.9165 0.35332 15.8847 0.347695C15.8753 0.34582 15.8659 0.344883 15.8565 0.343008C15.8293 0.33832 15.8031 0.333633 15.7759 0.33082C15.7384 0.32707 15.7009 0.325195 15.6634 0.325195H8.68841C7.78091 0.325195 7.0431 1.06301 7.0431 1.97051V7.49801C6.92872 7.50738 6.81528 7.52332 6.7056 7.54488C6.4806 6.73301 5.73716 6.13488 4.85497 6.13488H2.18872C1.12935 6.13488 0.266846 6.99645 0.266846 8.05676V18.133C0.266846 19.1924 1.12841 20.0549 2.18872 20.0549H4.85497C5.70341 20.0549 6.42341 19.5018 6.67747 18.7386H7.1031V22.5252C7.1031 23.1468 7.60653 23.6502 8.2281 23.6502H19.359C19.9806 23.6502 20.484 23.1468 20.484 22.5252V18.7386H21.8753C22.4968 18.7386 23.0003 18.2352 23.0003 17.6136V10.1136C23.0003 8.72519 21.865 7.5852 20.4334 7.49519L20.4343 7.49707ZM14.5393 2.57707V5.09707C14.5393 5.71863 15.0428 6.22207 15.6643 6.22207H18.1843V7.49051H9.29403V2.57707H14.5393ZM4.52685 17.8068H2.51778V8.3877H4.52685V17.8068ZM18.234 21.4021H9.3531V16.0068H18.234V21.4021ZM20.485 16.4905V14.8818C20.485 14.2602 19.9815 13.7568 19.36 13.7568H8.22903C7.60747 13.7568 7.10403 14.2602 7.10403 14.8818V16.4905H6.77778V10.1155C6.77778 9.91207 7.00653 9.74051 7.27747 9.74051H20.2525C20.5234 9.74051 20.7522 9.91207 20.7522 10.1155V16.4905H20.485Z"/> <path d="M17.7512 13.1155C18.3725 13.1155 18.8762 12.6118 18.8762 11.9905C18.8762 11.3692 18.3725 10.8655 17.7512 10.8655C17.1299 10.8655 16.6262 11.3692 16.6262 11.9905C16.6262 12.6118 17.1299 13.1155 17.7512 13.1155Z"/> <path d="M10.794 18.5146H16.794C17.4156 18.5146 17.919 18.0111 17.919 17.3896C17.919 16.768 17.4156 16.2646 16.794 16.2646H10.794C10.1725 16.2646 9.66903 16.768 9.66903 17.3896C9.66903 18.0111 10.1725 18.5146 10.794 18.5146Z"/> <path d="M10.794 21.0599H13.9843C14.6059 21.0599 15.1093 20.5564 15.1093 19.9349C15.1093 19.3133 14.6059 18.8099 13.9843 18.8099H10.794C10.1725 18.8099 9.66903 19.3133 9.66903 19.9349C9.66903 20.5564 10.1725 21.0599 10.794 21.0599Z"/> </svg>

<svg viewBox="0 0 24 24" xmlns="http://www.w3.org/2000/svg" aria-hidden="true" fill="currentColor"><path d="M20.434 7.497v-2.4q0-.056-.005-.112-.005-.042-.012-.082l-.005-.028a1 1 0 0 0-.024-.096q-.002-.004-.003-.01a1 1 0 0 0-.034-.095l-.003-.008-.04-.085-.007-.015-.044-.074q-.007-.01-.012-.02-.023-.034-.048-.065-.007-.011-.018-.023a1 1 0 0 0-.066-.073l-.008-.009L16.46.656 16.451.65a1 1 0 0 0-.073-.067l-.025-.018q-.03-.025-.064-.048l-.022-.013-.073-.044-.015-.007-.085-.04-.01-.004-.093-.034-.012-.003a1 1 0 0 0-.094-.023l-.028-.005q-.041-.008-.081-.012a1 1 0 0 0-.113-.006H8.688c-.907 0-1.645.738-1.645 1.646v5.527q-.172.015-.337.047a1.924 1.924 0 0 0-1.851-1.41H2.189c-1.06 0-1.922.861-1.922 1.922v10.076c0 1.06.861 1.922 1.922 1.922h2.666c.848 0 1.568-.553 1.822-1.316h.426v3.786c0 .622.504 1.125 1.125 1.125H19.36c.622 0 1.125-.503 1.125-1.125V18.74h1.391c.622 0 1.125-.504 1.125-1.125v-7.5c0-1.389-1.135-2.529-2.567-2.619zm-5.895-4.92v2.52c0 .622.504 1.125 1.125 1.125h2.52v1.269h-8.89V2.577zM4.527 17.807h-2.01v-9.42h2.01zm13.707 3.595h-8.88v-5.395h8.88zm2.251-4.911v-1.61c0-.62-.503-1.124-1.125-1.124H8.229c-.622 0-1.125.503-1.125 1.125v1.609h-.326v-6.375c0-.204.229-.375.5-.375h12.975c.27 0 .5.171.5.375v6.375z"/><path d="M17.751 13.116a1.125 1.125 0 1 0 0-2.25 1.125 1.125 0 0 0 0 2.25m-6.957 5.399h6a1.125 1.125 0 1 0 0-2.25h-6a1.125 1.125 0 1 0 0 2.25m0 2.545h3.19a1.125 1.125 0 1 0 0-2.25h-3.19a1.125 1.125 0 1 0 0 2.25"/></svg>
